X: 12
T: Song of Victory over the Sacred Pole
C: Teton Sioux band 1911-1914
N: Derived from sioux012.krn
O: South Dakota, U.S.A.
N: Teton Sioux Music by Frances Densmore, 1918
Z: transcribed to **kern format by Craig Sapp
L: 1/8
M: 3/4
Q: 1/4=58
K: D clef=bass
%%linebreak <none>
F4(3F E D [I:setbarnb 2]| 
D4B,2 ||  
[M:2/4]D4 ||  
[M:3/4]B,4B,2 | 
F4(3F E D | 
D4B,2 ||  
[M:2/4]D4 ||  
[M:3/4]F2F< D-D2 | 
F< D D< B,-B,2 | 
F,2F,4 | 
D,2F,4 ||  
[M:2/4]G,< F, F,3/ E,/ | 
F,4 | 
D,4 | 
D,2D,2 | 
D,4- | 
D,4 | 
B,2D2 | 
D2(F/ E3/) | 
D2(D3/ B,/) | 
D2B,2 | 
F2(F/ D3/) | 
D2(F/ D3/) | 
(D> B,)B,2 | 
F,2F,2 | 
(F,> D,)D,2 | 
F,2(F,3/ G,/) | 
F,> F, (F,3/ E,/) | 
F,4 | 
D,4 | 
D,2D,2 | 
D,4 |]  



